public/assets/standards/rtc/icon-bg.svg

<svg width="48" height="48" viewBox="0 0 48 48" fill="none" xmlns="http://www.w3.org/2000/svg">
<path opacity="0.2" d="M31.7643 1.545C29.7197 0.688703 27.5372 0.208566 25.322 0.127686C22.3827 0.143791 19.5078 1.33562 16.794 2.58382C11.8011 4.8628 7.88743 8.43024 3.76434 12.0621C0.454591 15.0256 -0.0930071 21.0894 0.0116808 25.2206C0.0116808 25.7198 0.0116811 26.2272 0.0599986 26.7264C0.0876649 28.2655 0.359478 29.7903 0.86529 31.2441C1.70279 33.5473 3.70797 35.4961 5.22997 37.3885C6.75486 39.4199 8.60191 41.1881 10.6979 42.6229C13.2024 44.2898 16.7859 47.1406 19.8702 47.3983C23.7678 47.7284 26.7393 47.8895 30.4839 46.7218C34.462 45.4817 38.8267 43.6698 41.7097 40.4969C43.2156 38.83 44.198 36.4705 45.3174 34.5136C47.5068 30.8495 48.395 26.5534 47.8379 22.3215C47.2501 17.7797 45.4704 14.2686 43.586 10.2421C41.154 5.0158 36.8779 3.46964 31.7643 1.545Z" fill="#AECC53"/>
</svg>

<svg xmlns="http://www.w3.org/2000/svg" width="48" height="48" fill="none" viewBox="0 0 48 48"><path fill="#aecc53" d="M31.764 1.545A18.4 18.4 0 0 0 25.322.128c-2.94.016-5.814 1.208-8.528 2.456-4.993 2.279-8.907 5.846-13.03 9.478C.454 15.026-.093 21.09.012 25.221c0 .499 0 1.006.048 1.505.028 1.54.3 3.064.805 4.518.838 2.303 2.843 4.252 4.365 6.145a23.3 23.3 0 0 0 5.468 5.234c2.504 1.667 6.088 4.518 9.172 4.775 3.898.33 6.87.491 10.614-.676 3.978-1.24 8.343-3.052 11.226-6.225 1.506-1.667 2.488-4.026 3.607-5.983a18.95 18.95 0 0 0 2.52-12.193c-.587-4.541-2.367-8.052-4.251-12.079-2.432-5.226-6.708-6.772-11.822-8.697" opacity=".2"/></svg>
